X:055
T:Waltz TS.055
M:6/8
L:1/8
Q:3/8=50
S:Thomas Sands’ MS,1810,Lincolnshire
R:waltz
O:England;Lincolnshire
Z:vmp.Ruairidh Greig, 2011
K:F
(F/G/)|AABc2f|ccB {B}”tr”A2 F/G/|AAB c2f|bge”tr”f2:|
|:bbg aaf|dgf edc|bbg aaf|dge”tr”f3:|
|:(A/B/)|ccdc2A|BBG”tr”A2 (A/B/)|ccdc2A|BGEF3:|]

